packages/ui-solid/icons/chat_28.svg

<svg width="28" height="28" viewBox="0 0 28 28" fill="none" xmlns="http://www.w3.org/2000/svg">
<path fill-rule="evenodd" clip-rule="evenodd" d="M7.14581 20.6404C7.42453 20.0448 7.59712 19.3532 7.59712 18.5054C5.80511 17.04 4.68729 14.9661 4.68729 12.6667C4.68729 8.22622 8.85616 4.62649 13.9987 4.62649C19.1413 4.62649 23.3102 8.22622 23.3102 12.6667C23.3102 17.1072 19.1413 20.7069 13.9987 20.7069C13.1949 20.7069 12.4149 20.619 11.6709 20.4536C11.1604 21.0129 10.1632 21.7412 8.48026 22.3049C7.6048 22.5982 6.54379 22.8469 5.26926 23.0042C5.98499 22.2978 6.70072 21.5915 7.14581 20.6404ZM12.2721 22.5692C12.836 22.6459 13.4127 22.6855 13.9987 22.6855C19.9515 22.6855 25.2887 18.4626 25.2887 12.6667C25.2887 6.87086 19.9515 2.64792 13.9987 2.64792C8.046 2.64792 2.70872 6.87086 2.70872 12.6667C2.70872 15.2532 3.8063 17.5651 5.53131 19.2996C5.3309 20.1237 4.78403 20.7032 3.8795 21.5959C3.27657 22.1908 3.11928 23.1036 3.4883 23.8661C3.85733 24.6286 4.67078 25.0716 5.51149 24.9678C8.74804 24.5686 10.9257 23.6016 12.2721 22.5692Z" fill="#007AFF"/>
</svg>

<svg xmlns="http://www.w3.org/2000/svg" width="28" height="28" fill="none"><path fill="currentColor" fill-rule="evenodd" d="M7.146 20.64c.279-.595.451-1.287.451-2.135-1.792-1.465-2.91-3.539-2.91-5.838 0-4.44 4.17-8.04 9.312-8.04s9.311 3.6 9.311 8.04-4.169 8.04-9.311 8.04a10.8 10.8 0 0 1-2.328-.253c-.51.559-1.508 1.287-3.19 1.85-.876.294-1.937.543-3.212.7.716-.706 1.432-1.413 1.877-2.364m5.126 1.93q.846.115 1.727.116c5.952 0 11.29-4.223 11.29-10.02 0-5.795-5.338-10.018-11.29-10.018-5.953 0-11.29 4.223-11.29 10.019 0 2.586 1.097 4.898 2.822 6.633-.2.824-.747 1.403-1.651 2.296a1.978 1.978 0 0 0 1.631 3.372c3.237-.4 5.415-1.366 6.761-2.399" clip-rule="evenodd"/></svg>
